X: 1
T:House Of Gold
C:Hank Williams
M:4/4
L:1/8
K:D
|AB d2|"D"f8-|f2 e2 "G"ed B2|"D"A8-
w:Peo- * ple    steal, * They    cheat * and     lie
|A2 d2 fe d2|a8-|a4 f2 d2 | f8 
w:*   for wealth * and what * it will buy.
|f2 a2 a2 b2| "G"d'8-| d'2 d'd' b2 g2 | "D"a8-
w:*  But don't they    know *  on the judge-ment    day
|a2 f2 AB d2|"A7"e2 e6-|e2 fe dA B2 |"D"d8-
w:*  that gold * and     sil-ver *  will * melt *  a-      way?
|d2 "^CHORUS"f2 AB d2 |f8-|f2 fe d2 "G"B2 |"D"A8-
w:*           I'd rath- *  er  be  *  in a deep    dark    grave
|A2 d2 fe d2 |a8-|a2 a2 f2 d2 |f8-
w:*  and know * that my  *  poor soul was saved
|f2 aa aa b2 | "G"d'8-| d'2 d'd' b2 g2 |"D"a8-
w:*  Than to live in this    world *  in a house of     gold
|a2 "^TAG"AA B2 d2 |"A7"e8-|e2 fe dA B2 |"D"d8-
w:*        and de- ny  my      God *  and * doom *  my      soul.
|"^END"d2 f2 A B3 |f8-| f2 fe "G"d2 B2 |"D"A8-
w:*  What good is gold *  and *    sil-ver     too;
|A4 d2 f2 | a8-| a2 a2 f2 d2 |f8-
w:*   If your hearts *   not pure and true?
|f4 a2 b2 |"G"d'8-| d'2 d'2 b2 g2 |"D"a8-
w:*  Sin-ner    hear *  me when I      say
|a2 A2 B d3 |"A7"e8-|e2 fe dA B2 |"D"d8-|"^To CHORUS"d4||
w:*  Fall * down       on  *  your * knees *  and     pray. *
